archdroid-icon-theme/Archdroid-DeepPurple/places/scalable/folder-collection-arch.svg

<svg fill="#673AB7" height="48" viewBox="0 0 48 48" width="48" xmlns="http://www.w3.org/2000/svg"><g fill="#673AB7"><path d="m8 12h-4v28c0 2.21 1.79 4 4 4h28v-4h-28z"/><path d="m16 4c-2.21 0-4 1.79-4 4v24c0 2.21 1.79 4 4 4h24c2.21 0 4-1.79 4-4v-24c0-2.21-1.79-4-4-4zm12 6c.0145.03403.024732.056174.039062.089844.327332.768953.612453 1.439164.888672 2.08789.00412.00966.007619.02165.011719.03125.034858.081779.076578.178606.111328.259766.071062.163417.171581.398143.238281.550781.723248 1.668228 1.523931 3.393907 3.03125 6.324219.06583.128399.14906.288299.21875.423828.805272 1.5574 1.781506 3.406837 3.06836 5.802734-.675638-.405663-1.543295-.769417-2.753906-1.083984 1.761288.90401 2.62335 1.739244 3.451172 2.38086.525544.974523 1.078754 1.997685 1.695312 3.132812-3.126436-1.804948-5.559406-2.927877-7.824219-3.371094.075447-.341244.119407-.709279.128907-1.091797.050296-2.03078-.924364-3.763106-2.175782-3.86914s-2.307122 1.455549-2.357422 3.486328l-.003906.099609c-.003789.476366.048534.935206.146484 1.357422-2.289445.430728-4.745101 1.559175-7.914062 3.388672 1.962073-3.525447 3.407845-6.17558 4.554688-8.326172.800119-1.500808 1.445407-2.7472 1.974609-3.802734.267001-.532623.541941-1.07868.759765-1.533203.002.0017.00386.004159.00586.005859.118029.09907.253347.195179.386719.292969.053158.039017.098476.078347.154297.117187.052648.036595.116745.072925.171874.109375.150296.099522.300398.200178.470704.298828.0013.0008.002606.001185.003906.001953.232881.134777.48442.268628.759766.402344.276344.134081.575668.266676.90039.400391-.299821-.209768-.57054-.413857-.818359-.611328-.002-.0015-.00396-.002307-.00586-.003907-.745397-.594481-1.276369-1.132216-1.730468-1.613281-.0026-.0027-.007266-.005112-.009766-.007812.991143-2.117702 1.531654-3.547887 2.421875-5.730469z"/></g></svg>

<svg fill="#673AB7" height="48" version="1.1" viewBox="0 0 48 48" width="48" xmlns="http://www.w3.org/2000/svg"><path d="m8 12l-4 0 0 28c0 2.21 1.79 4 4 4l28 0 0-4-28 0 0-28z"/><path d="M16 4C13.79 4 12 5.79 12 8L12 32C12 34.21 13.79 36 16 36L40 36C42.21 36 44 34.21 44 32L44 8C44 5.79 42.21 4 40 4L16 4zM28 10C28.0145 10.03403 28.024732 10.056174 28.039062 10.089844 28.366394 10.858797 28.651515 11.529008 28.927734 12.177734 28.931854 12.187394 28.935353 12.199384 28.939453 12.208984 28.974311 12.290763 29.016031 12.38759 29.050781 12.46875 29.121843 12.632167 29.222362 12.866893 29.289062 13.019531 30.01231 14.687759 30.812993 16.413438 32.320312 19.34375 32.386142 19.472149 32.469372 19.632049 32.539062 19.767578 33.344334 21.324978 34.320568 23.174415 35.607422 25.570312 34.931784 25.164649 34.064127 24.800895 32.853516 24.486328 34.614804 25.390338 35.476866 26.225572 36.304688 26.867188 36.830232 27.841711 37.383442 28.864873 38 30 34.873564 28.195052 32.440594 27.072123 30.175781 26.628906 30.251228 26.287662 30.295188 25.919627 30.304688 25.537109 30.354984 23.506329 29.380324 21.774003 28.128906 21.667969 26.877488 21.561935 25.821784 23.123518 25.771484 25.154297L25.767578 25.253906C25.763789 25.730272 25.816112 26.189112 25.914062 26.611328 23.624617 27.042056 21.168961 28.170503 18 30 19.962073 26.474553 21.407845 23.82442 22.554688 21.673828 23.354807 20.17302 24.000095 18.926628 24.529297 17.871094 24.796298 17.338471 25.071238 16.792414 25.289062 16.337891 25.291062 16.339591 25.292922 16.34205 25.294922 16.34375 25.412951 16.44282 25.548269 16.538929 25.681641 16.636719 25.734799 16.675736 25.780117 16.715066 25.835938 16.753906 25.888586 16.790501 25.952683 16.826831 26.007812 16.863281 26.158108 16.962803 26.30821 17.063459 26.478516 17.162109 26.479816 17.162909 26.481122 17.163294 26.482422 17.164062 26.715303 17.298839 26.966842 17.43269 27.242188 17.566406 27.518532 17.700487 27.817856 17.833082 28.142578 17.966797 27.842757 17.757029 27.572038 17.55294 27.324219 17.355469 27.322219 17.353969 27.320259 17.353162 27.318359 17.351562 26.572962 16.757081 26.04199 16.219346 25.587891 15.738281 25.585291 15.735581 25.580625 15.733169 25.578125 15.730469 26.569268 13.612767 27.109779 12.182582 28 10z"/></svg>
